!!!!SEGMENT: pl-wn--mus-iii-602--003_kosciuszko-tadeusz--waltz.krn
!!!cenid: 17xx:2406
!!!COM: Kościuszko, Tadeusz
!!!COM-rismID:
!!!CDT: 1746/02/04-1817/10/15
!!!CNT: Polish-Lithuanian
!!!OTL: Waltz
!!!PDT:
!!!AGN:
!!!SMS-siglum: PL-Wn
!!!SMS-shelfmark: Mus.III.602
!!!SMS-shelfwork: 003 W
!!!SMS-variant:
!!!SMS-altvar:
!!!NIFC-rismSourceID: 990034150
!!!NIFC-islandoraID:
!!!URL-pdf-islandora:
!!!URL-scan: https://polona.pl/item/two-polonoises-a-waltz,MTE1OTEyNQ/0/#info:metadata @EN{Scan on Polona} @PL{Skany w portalu Polona}
!!!ONB-nifc: UWAGA: skan 3
!!!AIN: 2 piano
!!!key: G
**kern	**kern
*part2	*part1
*staff2	*staff1
*I"[Piano]	*I"[Piano]
*I'pf	*I'pf
*ICklav	*ICklav
*Ipiano	*Ipiano
*clefF4	*clefG2
*k[f#]	*k[f#]
*G:	*G:
*M3/8	*M3/8
!	!LO:TX:a:B:t=Waltz
8r	16g/LL
.	16b/JJ
=1	=1
8G\L 8B 8d	16dd\LL
.	16b\
8G\ 8B 8d	16dd\
.	16b\
8G\J 8B 8d	16dd\
.	16b\JJ
=2	=2
8G\L 8B 8d	8.gg\L
8G\ 8B 8d	.
.	16bb\L
8G\J 8B 8d	16aa\
.	16gg\JJ
=3	=3
8D/L	8dd\L 8ff#
8D/	8dd\ 8ff#
8D/J	8dd\J 8ff#
=4	=4
8D/L	8.a\L 8.ff#
8D/	.
.	16dd\L
8D/J	16ee\
.	16ff#\JJ
=5	=5
8D/L	16aa\LL
.	16gg\
8D/	16ff#\
.	16gg\
8D/J	16aa\
.	16ff#\JJ
=6	=6
8D/L	8.ccc\L
8D/	.
.	16aa\L
8D/J	16gg\
.	16ff#\JJ
=7	=7
8G\L	8b\L 8dd 8gg
8G\	8b\ 8dd 8gg
8G\J	8b\J 8dd 8gg
=	=
!	!LO:SIC:v:t=custos cc
4G\	4b\ 4dd 4gg
!!LO:LB:g=original	!
=8:|!|:	=8:|!|:
8r	16cc\LL
.	16a\JJ
=9	=9
8D/L	8d/L 8f#
8D/J	8d/ 8f#
8r	16f#/L
.	16a/JJ
=10	=10
8G\L	8dd\L
8G\	16dd\L
.	16dd\
8G\J	16gg\
.	16dd\JJ
=11	=11
!LO:TX:t=P:problem:mixed beam	!
8DD/L	8a\L 8cc
8D\J	8a\ 8cc
8r	16a\L
.	16cc\JJ
=12	=12
8GG/L	4g/ 4b
8G\J	.
8r	8dd\
=13	=13
4G\ 4B 4d	16gg\LL
.	16dd\
.	16bb\
.	16dd\
8r	16aa\
.	16dd\JJ
=14	=14
4G\ 4d	16gg\LL
.	16dd\
.	16ff#\
.	16dd\
8r	16gg\
.	16dd\JJ
=15	=15
4F#\ 4A 4d	16aa\LL
.	16dd\
.	16gg\
.	16dd\
8r	16ff#\
.	16dd\JJ
=	=
8G\L	4gg\
8GG/J	.
!!LO:LB:g=original	!
=16:|!|:	=16:|!|:
*k[]	*k[]
*C:	*C:
8r	8gg\
*clefG2	*
=17	=17
8c/L 8e 8g	16gg\LL
.	16ee\
8c/ 8e 8g	16ff\
.	16gg\
8c/J 8e 8g	16aa\
.	16bb\JJ
=18	=18
8c/L 8e 8g	4ccc\
8c/ 8e 8g	.
8c/J 8e 8g	16ddd\LL
.	16eee\JJ
=19	=19
8B/L 8d 8g	16ddd\LL
.	16ccc\
8B/ 8d 8g	16bb\
.	16ccc\
8B/J 8d 8g	16fff\
.	16ddd\JJ
=20	=20
8c/L 8e 8g	8ccc\L
8c/ 8e 8g	8eee\
8c/J 8e 8g	8gg\J
=21	=21
8c/L 8e 8g	16gg\LL
.	16ee\
8c/ 8e 8g	16ff\
.	16gg\
8c/J 8e 8g	16aa\
.	16bb\JJ
=22	=22
8c/L 8e 8g	4ccc\
8c/ 8e 8g	.
8c/J 8e 8g	16ddd\LL
.	16eee\JJ
=23	=23
8B/L 8d 8g	16ddd\LL
.	16ccc\
8B/ 8d 8g	16bb\
.	16ccc\
8B/J 8d 8g	16fff\
.	16ddd\JJ
=24	=24
4c/ 4e 4g	4ccc\
*clefF4	*
!!LO:LB:g=original	!
=25:|!|:	=25:|!|:
!LO:TX:t=P:problem:w źródle brak zmiany klucza	!
8G\L 8B 8d	16gg\LL
.	16bb\
8G\ 8B 8d	16gg\
.	16bb\
8G\J 8B 8d	16gg\
.	16bb\JJ
=26	=26
8G\L 8c 8e	16ccc\LL
.	16eee\
8G\ 8c 8e	16ccc\
.	16eee\
8G\J 8c 8e	16fff\
.	16ddd\JJ
=27	=27
8G\L 8B 8d	16gg\LL
.	16bb\
8G\ 8B 8d	16gg\
.	16bb\
8G\J 8B 8d	16gg\
.	16bb\JJ
=28	=28
8G\L 8c 8e	16ccc\LL
.	16eee\
8G\ 8c 8e	16ccc\
.	16eee\
8G\J 8c 8e	16fff\
.	16ddd\JJ
*clefG2	*
=29	=29
8c/L 8e 8g	16gg\LL
.	16ee\
8c/ 8e 8g	16ff\
.	16gg\
8c/J 8e 8g	16aa\
.	16bb\JJ
=30	=30
8c/L 8e 8g	4ccc\
8c/ 8e 8g	.
8c/J 8e 8g	16ddd\LL
.	16eee\JJ
=31	=31
8B/L 8d 8g	16ddd\LL
.	16ccc\
8B/ 8d 8g	16bb\
.	16ccc\
8B/J 8d 8g	16fff\
.	16ddd\JJ
*clefF4	*
=32	=32
!	!LO:TX:t=P:problem: fermata nad kreską taktową
8C/L	4ccc;\
!LO:TX:t=P:problem: fermata nad kreską taktową	!
8CC;</J	.
=:|!	=:|!
*-	*-
!!!system-decoration: {s1,s2}
!!!RDF**kern: > = above
!!!RDF**kern: < = below
!!!ENC: Solarz Mateusz
!!!END: 2022-05-26
!!!ENC: Natalia Wrzos
!!!END: 2022-07-04
